COLOR/action 16/16/mail-archive.svg

<svg height="16.000061" width="15.999999" xmlns="http://www.w3.org/2000/svg"><path d="m4.99414.00006c-1.2582.0145-2.17889-.0306-2.93164.38477-.37637.20766-.67323.55938-.83789.99804-.16467.43867-.22461.95958-.22461 1.61719v10c0 .65761.0599 1.17858.22461 1.61719.16468.43861.46153.78852.83789.99609.75272.41513 1.67354.37165 2.93164.38672h.002 5.00586.004c1.25819-.0145 2.17889.0306 2.93164-.38477.37637-.20766.67322-.55938.83789-.99804.16439-.43867.22447-.95958.22447-1.61719v-10c0-.65761-.0599-1.17858-.22461-1.61719-.16468-.43861-.46153-.78852-.83789-.99609-.75272-.41513-1.67355-.37165-2.93164-.38672h-.002-5.00586z" fill="#6c6c6c"/><path d="m593.50018 223c-1.38071 0-2.5 1.11929-2.5 2.5s1.11929 2.5 2.5 2.5 2.5-1.11929 2.5-2.5-1.11929-2.5-2.5-2.5zm2.07812 5.98828c-.10898-.0129-.23096.01-.33398.0859l-1.35937 1.00195c-.12211-.0505-.25288-.0763-.38491-.0761-.13711.0003-.27284.029-.39844.084l-1.3457-.99218c-.20603-.15201-.4867-.0939-.5918.0469l-.0859.11328c-.12662.16964-.10641.49636.0996.64844l1.33008.98242c-.005.0389-.007.078-.008.11719.00098.35628.19145.68514.5.86328v1.63664c0 .277.20866.5.46875.5h.0625c.26001 0 .46891-.223.46891-.5v-1.63477c.30916-.17849.49972-.50825.5-.86523 0-.0451-.004-.0902-.01-.13477l1.33204-.98242c.20601-.15208.22622-.47882.0996-.64843l-.0859-.11329c-.0525-.0704-.14879-.11991-.25782-.13281z" fill="#fff" transform="translate(-585.9997 -219.99994)"/><path d="m8.9980804 5.4241978a1.5 1.5 0 0 1 -1.4219753 1.5739313 1.5 1.5 0 0 1 -1.5741609-1.4217211 1.5 1.5 0 0 1 1.4214669-1.5743904 1.5 1.5 0 0 1 1.57462 1.4212127" fill="#666"/><path d="m4.9941406 0c-1.2582.0145-2.1788906-.03060438-2.9316406.38476562-.37637.20766-.6732306.55938688-.8378906.99804688-.16467.43867-.2246094.9595775-.2246094 1.6171875v.5c0-.65761.0599394-1.1785175.2246094-1.6171875.16466-.43866.4615206-.7903869.8378906-.99804688.75275-.41537 1.6734406-.37026562 2.9316406-.38476562h.0039063 5.0058591.001953c1.25809.01507 2.178921-.02841125 2.931641.38671875.37636.20757005.673211.55748375.837891.99609375.16471.43861.224609.9595775.224609 1.6171875v-.5c0-.65761-.059899-1.1785775-.224609-1.6171875-.16468-.43861-.461531-.78852375-.837891-.99609375-.75272-.41513-1.673551-.37164875-2.931641-.38671875h-.001953-5.0058591z" fill="#fff" opacity=".3"/><path d="m10.005859 16.000061c1.2582-.0145 2.178891.0306 2.931641-.384766.37637-.20766.673231-.559386.837891-.998046.16467-.43867.224609-.959578.224609-1.617188v-.5c0 .65761-.05994 1.178518-.224609 1.617188-.16466.43866-.461521.790386-.837891.998046-.75275.41537-1.673441.370266-2.931641.384766h-.0039-5.005859-.00195c-1.258099-.01507-2.17893.028411-2.93165-.386719-.37636-.20757-.673211-.557483-.837891-.996093-.16471-.43861-.224609-.959578-.224609-1.617188v.5c0 .65761.059899 1.178578.224609 1.617188.16468.43861.461531.788523.837891.996093.75272.41513 1.673551.371649 2.931641.386719h.00195 5.005859z" opacity=".2"/></svg>

<?xml version="1.0" encoding="UTF-8" standalone="no"?>
<svg
   xmlns:osb="http://www.openswatchbook.org/uri/2009/osb"
   xmlns:dc="http://purl.org/dc/elements/1.1/"
   xmlns:cc="http://creativecommons.org/ns#"
   xmlns:rdf="http://www.w3.org/1999/02/22-rdf-syntax-ns#"
   xmlns:svg="http://www.w3.org/2000/svg"
   xmlns="http://www.w3.org/2000/svg"
   xmlns:xlink="http://www.w3.org/1999/xlink"
   xmlns:sodipodi="http://sodipodi.sourceforge.net/DTD/sodipodi-0.dtd"
   xmlns:inkscape="http://www.inkscape.org/namespaces/inkscape"
   height="16.000061"
   id="svg7384"
   version="1.1"
   width="15.999999"
   sodipodi:docname="mail-archive.svg"
   inkscape:version="0.92.4 (5da689c313, 2019-01-14)">
  <sodipodi:namedview
     pagecolor="#ffffff"
     bordercolor="#666666"
     borderopacity="1"
     objecttolerance="10"
     gridtolerance="10"
     guidetolerance="10"
     inkscape:pageopacity="0"
     inkscape:pageshadow="2"
     inkscape:window-width="1920"
     inkscape:window-height="1016"
     id="namedview21"
     showgrid="false"
     inkscape:zoom="52.4373"
     inkscape:cx="7.9999995"
     inkscape:cy="8.0000305"
     inkscape:window-x="0"
     inkscape:window-y="27"
     inkscape:window-maximized="1"
     inkscape:current-layer="svg7384"
     showborder="true">
    <inkscape:grid
       type="xygrid"
       id="grid3111" />
  </sodipodi:namedview>
  <metadata
     id="metadata20854">
    <rdf:RDF>
      <cc:Work
         rdf:about="">
        <dc:title></dc:title>
        <dc:format>image/svg+xml</dc:format>
        <dc:type
           rdf:resource="http://purl.org/dc/dcmitype/StillImage" />
      </cc:Work>
    </rdf:RDF>
  </metadata>
  <defs
     id="defs7386">
    <linearGradient
       id="linearGradient5606"
       osb:paint="solid">
      <stop
         id="stop5608"
         offset="0"
         style="stop-color:#000000;stop-opacity:1;" />
    </linearGradient>
    <linearGradient
       id="linearGradient4526"
       osb:paint="solid">
      <stop
         id="stop4528"
         offset="0"
         style="stop-color:#ffffff;stop-opacity:1;" />
    </linearGradient>
    <linearGradient
       id="linearGradient3600-4"
       osb:paint="gradient">
      <stop
         id="stop3602-7"
         offset="0"
         style="stop-color:#f4f4f4;stop-opacity:1" />
      <stop
         id="stop3604-6"
         offset="1"
         style="stop-color:#dbdbdb;stop-opacity:1" />
    </linearGradient>
    <linearGradient
       inkscape:collect="always"
       xlink:href="#a-3"
       id="linearGradient924"
       gradientUnits="userSpaceOnUse"
       x1=".0024"
       y1="5.99785"
       x2="16.0024"
       y2="14.99785" />
  </defs>
  <path
     sodipodi:nodetypes="cccssccccccccsscccccc"
     inkscape:connector-curvature="0"
     style="color:#000000;font-style:normal;font-variant:normal;font-weight:normal;font-stretch:normal;font-size:medium;line-height:normal;font-family:sans-serif;font-variant-ligatures:normal;font-variant-position:normal;font-variant-caps:normal;font-variant-numeric:normal;font-variant-alternates:normal;font-feature-settings:normal;text-indent:0;text-align:start;text-decoration:none;text-decoration-line:none;text-decoration-style:solid;text-decoration-color:#000000;letter-spacing:normal;word-spacing:normal;text-transform:none;writing-mode:lr-tb;direction:ltr;text-orientation:mixed;dominant-baseline:auto;baseline-shift:baseline;text-anchor:start;white-space:normal;shape-padding:0;clip-rule:nonzero;display:inline;overflow:visible;visibility:visible;opacity:1;isolation:auto;mix-blend-mode:normal;color-interpolation:sRGB;color-interpolation-filters:linearRGB;solid-color:#000000;solid-opacity:1;vector-effect:none;fill:#6c6c6c;fill-opacity:1;fill-rule:nonzero;stroke:none;stroke-width:1.00000012;stroke-linecap:butt;stroke-linejoin:miter;stroke-miterlimit:4;stroke-dasharray:none;stroke-dashoffset:0;stroke-opacity:1;marker:none;color-rendering:auto;image-rendering:auto;shape-rendering:auto;text-rendering:auto;enable-background:accumulate"
     id="path1817-9"
     d="M 4.99414,6e-5 C 3.73594,0.01456 2.81525,-0.03054 2.0625,0.38483 1.68613,0.59249 1.38927,0.94421 1.22461,1.38287 1.05994,1.82154 1,2.34245 1,3.00006 v 10 c 0,0.65761 0.0599,1.17858 0.22461,1.61719 0.16468,0.43861 0.46153,0.78852 0.83789,0.99609 0.75272,0.41513 1.67354,0.37165 2.93164,0.38672 h 0.002 5.00586 0.004 c 1.25819,-0.0145 2.17889,0.0306 2.93164,-0.38477 0.37637,-0.20766 0.67322,-0.55938 0.83789,-0.99804 C 13.93992,14.17858 14,13.65767 14,13.00006 v -10 C 14,2.34245 13.9401,1.82148 13.77539,1.38287 13.61071,0.94426 13.31386,0.59435 12.9375,0.38678 12.18478,-0.02835 11.26395,0.01513 10.00586,6e-5 H 10.00386 4.998 Z" />
  <g
     id="layer9"
     label="status"
     style="display:inline"
     transform="translate(-813.00024,147.00006)" />
  <g
     id="layer2"
     style="display:inline"
     transform="translate(-572.00004,-219.99994)" />
  <g
     id="layer4"
     style="display:inline"
     transform="translate(-572.00004,-219.99994)" />
  <g
     id="g1812"
     style="display:inline"
     transform="translate(-572.00004,-219.99994)" />
  <g
     id="g6217"
     style="display:inline"
     transform="translate(-572.00004,-219.99994)" />
  <g
     id="layer3"
     style="display:inline"
     transform="translate(-572.00004,-219.99994)" />
  <g
     id="layer1"
     style="display:inline"
     transform="translate(-572.00004,-219.99994)" />
  <g
     id="g1833-5"
     style="display:inline;fill:#ffffff;fill-opacity:1"
     transform="translate(-585.9997,-219.99994)">
    <path
       d="m 593.50018,223 c -1.38071,0 -2.5,1.11929 -2.5,2.5 0,1.38071 1.11929,2.5 2.5,2.5 1.38071,0 2.5,-1.11929 2.5,-2.5 0,-1.38071 -1.11929,-2.5 -2.5,-2.5 z m 2.07812,5.98828 c -0.10898,-0.0129 -0.23096,0.01 -0.33398,0.0859 l -1.35937,1.00195 c -0.12211,-0.0505 -0.25288,-0.0763 -0.38491,-0.0761 -0.13711,3e-4 -0.27284,0.029 -0.39844,0.084 l -1.3457,-0.99218 c -0.20603,-0.15201 -0.4867,-0.0939 -0.5918,0.0469 l -0.0859,0.11328 c -0.12662,0.16964 -0.10641,0.49636 0.0996,0.64844 l 1.33008,0.98242 c -0.005,0.0389 -0.007,0.078 -0.008,0.11719 9.8e-4,0.35628 0.19145,0.68514 0.5,0.86328 V 233.5 c 0,0.277 0.20866,0.5 0.46875,0.5 h 0.0625 c 0.26001,0 0.46891,-0.223 0.46891,-0.5 v -1.63477 c 0.30916,-0.17849 0.49972,-0.50825 0.5,-0.86523 0,-0.0451 -0.004,-0.0902 -0.01,-0.13477 l 1.33204,-0.98242 c 0.20601,-0.15208 0.22622,-0.47882 0.0996,-0.64843 l -0.0859,-0.11329 c -0.0525,-0.0704 -0.14879,-0.11991 -0.25782,-0.13281 z"
       id="path1817-9-3"
       style="color:#000000;font-style:normal;font-variant:normal;font-weight:normal;font-stretch:normal;font-size:medium;line-height:normal;font-family:sans-serif;font-variant-ligatures:normal;font-variant-position:normal;font-variant-caps:normal;font-variant-numeric:normal;font-variant-alternates:normal;font-feature-settings:normal;text-indent:0;text-align:start;text-decoration:none;text-decoration-line:none;text-decoration-style:solid;text-decoration-color:#000000;letter-spacing:normal;word-spacing:normal;text-transform:none;writing-mode:lr-tb;direction:ltr;text-orientation:mixed;dominant-baseline:auto;baseline-shift:baseline;text-anchor:start;white-space:normal;shape-padding:0;clip-rule:nonzero;display:inline;overflow:visible;visibility:visible;opacity:1;isolation:auto;mix-blend-mode:normal;color-interpolation:sRGB;color-interpolation-filters:linearRGB;solid-color:#000000;solid-opacity:1;vector-effect:none;fill:#ffffff;fill-opacity:1;fill-rule:nonzero;stroke:none;stroke-width:1.00000012;stroke-linecap:butt;stroke-linejoin:miter;stroke-miterlimit:4;stroke-dasharray:none;stroke-dashoffset:0;stroke-opacity:1;marker:none;color-rendering:auto;image-rendering:auto;shape-rendering:auto;text-rendering:auto;enable-background:accumulate"
       inkscape:connector-curvature="0"
       sodipodi:nodetypes="sssssccccccccccccsssscccccccc" />
  </g>
  <path
     style="opacity:1;vector-effect:none;fill:#666666;fill-opacity:1;stroke:none;stroke-width:1;stroke-linecap:round;stroke-linejoin:round;stroke-miterlimit:4;stroke-dasharray:none;stroke-dashoffset:0;stroke-opacity:1"
     id="path4483"
     sodipodi:type="arc"
     sodipodi:cx="7.5"
     sodipodi:cy="5.500061"
     sodipodi:rx="1.5"
     sodipodi:ry="1.5"
     sodipodi:start="6.2325882"
     sodipodi:end="6.2319424"
     sodipodi:open="true"
     d="M 8.9980804,5.4241978 A 1.5,1.5 0 0 1 7.5761051,6.9981291 1.5,1.5 0 0 1 6.0019442,5.576408 1.5,1.5 0 0 1 7.4234111,4.0020176 a 1.5,1.5 0 0 1 1.57462,1.4212127" />
  <path
     style="color:#000000;font-style:normal;font-variant:normal;font-weight:normal;font-stretch:normal;font-size:medium;line-height:normal;font-family:sans-serif;font-variant-ligatures:normal;font-variant-position:normal;font-variant-caps:normal;font-variant-numeric:normal;font-variant-alternates:normal;font-feature-settings:normal;text-indent:0;text-align:start;text-decoration:none;text-decoration-line:none;text-decoration-style:solid;text-decoration-color:#000000;letter-spacing:normal;word-spacing:normal;text-transform:none;writing-mode:lr-tb;direction:ltr;text-orientation:mixed;dominant-baseline:auto;baseline-shift:baseline;text-anchor:start;white-space:normal;shape-padding:0;clip-rule:nonzero;display:inline;overflow:visible;visibility:visible;opacity:0.3;isolation:auto;mix-blend-mode:normal;color-interpolation:sRGB;color-interpolation-filters:linearRGB;solid-color:#000000;solid-opacity:1;vector-effect:none;fill:#ffffff;fill-opacity:1;fill-rule:nonzero;stroke:none;stroke-width:1.00000012;stroke-linecap:butt;stroke-linejoin:miter;stroke-miterlimit:4;stroke-dasharray:none;stroke-dashoffset:0;stroke-opacity:1;marker:none;color-rendering:auto;image-rendering:auto;shape-rendering:auto;text-rendering:auto;enable-background:accumulate"
     d="M 4.9941406 0 C 3.7359406 0.0145 2.81525 -0.030604375 2.0625 0.38476562 C 1.68613 0.59242562 1.3892694 0.9441525 1.2246094 1.3828125 C 1.0599394 1.8214825 1 2.34239 1 3 L 1 3.5 C 1 2.84239 1.0599394 2.3214825 1.2246094 1.8828125 C 1.3892694 1.4441525 1.68613 1.0924256 2.0625 0.88476562 C 2.81525 0.46939562 3.7359406 0.5145 4.9941406 0.5 L 4.9980469 0.5 L 10.003906 0.5 L 10.005859 0.5 C 11.263949 0.51507 12.18478 0.47158875 12.9375 0.88671875 C 13.31386 1.0942888 13.610711 1.4442025 13.775391 1.8828125 C 13.940101 2.3214225 14 2.84239 14 3.5 L 14 3 C 14 2.34239 13.940101 1.8214225 13.775391 1.3828125 C 13.610711 0.9442025 13.31386 0.59428875 12.9375 0.38671875 C 12.18478 -0.02841125 11.263949 0.01507 10.005859 0 L 10.003906 0 L 4.9980469 0 L 4.9941406 0 z "
     id="path858" />
  <path
     id="path863"
     d="m 10.005859,16.000061 c 1.2582,-0.0145 2.178891,0.0306 2.931641,-0.384766 0.37637,-0.20766 0.673231,-0.559386 0.837891,-0.998046 C 13.940061,14.178579 14,13.657671 14,13.000061 v -0.5 c 0,0.65761 -0.05994,1.178518 -0.224609,1.617188 -0.16466,0.43866 -0.461521,0.790386 -0.837891,0.998046 -0.75275,0.41537 -1.673441,0.370266 -2.931641,0.384766 H 10.001959 4.9961 4.99415 C 3.736051,15.484991 2.81522,15.528472 2.0625,15.113342 1.68614,14.905772 1.389289,14.555859 1.224609,14.117249 1.059899,13.678639 1,13.157671 1,12.500061 v 0.5 c 0,0.65761 0.059899,1.178578 0.224609,1.617188 0.16468,0.43861 0.461531,0.788523 0.837891,0.996093 0.75272,0.41513 1.673551,0.371649 2.931641,0.386719 h 0.00195 5.005859 z"
     style="color:#000000;font-style:normal;font-variant:normal;font-weight:normal;font-stretch:normal;font-size:medium;line-height:normal;font-family:sans-serif;font-variant-ligatures:normal;font-variant-position:normal;font-variant-caps:normal;font-variant-numeric:normal;font-variant-alternates:normal;font-feature-settings:normal;text-indent:0;text-align:start;text-decoration:none;text-decoration-line:none;text-decoration-style:solid;text-decoration-color:#000000;letter-spacing:normal;word-spacing:normal;text-transform:none;writing-mode:lr-tb;direction:ltr;text-orientation:mixed;dominant-baseline:auto;baseline-shift:baseline;text-anchor:start;white-space:normal;shape-padding:0;clip-rule:nonzero;display:inline;overflow:visible;visibility:visible;opacity:0.2;isolation:auto;mix-blend-mode:normal;color-interpolation:sRGB;color-interpolation-filters:linearRGB;solid-color:#000000;solid-opacity:1;vector-effect:none;fill:#000000;fill-opacity:1;fill-rule:nonzero;stroke:none;stroke-width:1.00000012;stroke-linecap:butt;stroke-linejoin:miter;stroke-miterlimit:4;stroke-dasharray:none;stroke-dashoffset:0;stroke-opacity:1;marker:none;color-rendering:auto;image-rendering:auto;shape-rendering:auto;text-rendering:auto;enable-background:accumulate"
     inkscape:connector-curvature="0" />
</svg>
